!!!!SEGMENT: pl-kk--kk-i-217_anonim--o-admirabile-comercium.krn
!!!id: 16xx:772
!!!COM: Anonim
!!!COM-rism: pe30004985
!!!CDT:
!!!CNT:
!!!OTL: O admirabile comercium
!!!PDT:
!!!SMS-siglum: PL-Kk
!!!SMS-shelfmark: Kk.I.217
!!!NIFC-rismID: 1001143680
!!!URL-scan: http://repozytorium.nifc.pl/skany/pl-kk-nut--i-217
!!!ONB-nifc: UWAGA: na odwrocie inny utwór
!!!SMS-variant:
!!!SMS-altvar:
**kern	**fba	**text
*I"Baſso Ripieno.	*	*
*I'B rip	*	*
*clefF4	*	*
*k[]	*	*
*M3/2	*	*
=1	=1	=1
!LO:TX:a:t=P:problem:oddechy jako rozdzielacze słów:global	!	!
1.C,<	.	O
=2	=2	=2
*2\right	*	*
2G,<\	.	O
2c\	.	ad-
2E\	.	-mi-
=3	=3	=3
2.F\	.	-ra-
4G\	.	-bi-
4A,<\	.	-le
4A\	.	mi-
=4	=4	=4
2.G\	.	-ra-
4G\	.	-bi-
4G,<\	.	-le
*	*	*ij
4BB/	.	mi-
=5	=5	=5
2.C/	.	-ra-
4D/	.	-bi-
2E/	.	-le
*	*	*Xij
=6	=6	=6
2BB/	.	Co-
2.D\	.	-mer-
4D\	.	-ci-
=7	=7	=7
4GG,</	.	-um
4GG/	.	O
2C/	.	ad-
2E\	.	-mi-
=8	=8	=8
2.F\	.	-ra-
4G\	.	-bi-
4A\	.	-le
*	*	*ij
4A\	.	mi-
=9	=9	=9
2.G\	.	-ra-
4G\	.	-bi-
4B\	.	-le
*	*	*Xij
4B\	.	mi-
!LO:LB:g=original	!	!
=10	=10	=10
2c\	.	-ra-
(4C/	.	-bi-
4D/)	.	.
(4E/	.	-le
4F,</)	.	.
=11	=11	=11
2G\	.	Co-
2.D\	.	-mer-
4D\	.	-ci-
=12	=12	=12
2.GG,</	.	-um
(4G\	.	Cre-
4F\	.	.
4E\)	.	.
=13	=13	=13
1F	.	-a-
2D\	.	-tor
=14	=14	=14
2.C/	.	Ge-
4C/	.	-ne-
4A,<\	.	-ris
4F\	.	hu-
=15	=15	=15
2G\	.	-ma-
2G,<\	.	-ni
2F#X\	.	Cre-
=16	=16	=16
2G\	.	-a-
2G,<\	.	-tor
4G\	.	ge-
4F\	.	-ne-
=17	=17	=17
(2.E\	.	-ris
4F\)	.	.
(4E\	.	hu-
4D\)	.	.
=18	=18	=18
2C/	.	-ma-
2C,</	.	-ni
4c\	.	a-
4B\	.	-ni-
!LO:LB:g=original	!	!
=19	=19	=19
2A\	.	-ma-
2A,<\	.	-tum
*	*	*ij
4F\	.	a-
4E\	.	-ni-
=20	=20	=20
1D	.	-ma-
2D\	.	-tum
*	*	*Xij
=21	=21	=21
1E	.	Cor-
1F\	.	-p(us)
=22-	=22-	=22
.	.	.
1G	.	su-
=23	=23	=23
1C,<	.	-mens
2E\	.	de
=24	=24	=24
2.F\	.	vir-
4E\	.	-gi-
2D/	.	-ne
=25	=25	=25
1C	.	na-
2C/	.	-ſci
=26	=26	=26
2.C/	.	na
4D\	.	.
2E\	.	sci
=27	=27	=27
2F\	.	di-
2G\	.	-gna-
2GG/	.	-t(us)
=28	=28	=28
2C,</	.	est
2E\	.	de
4E\	.	Vir-
4E\	.	-gi-
=29	=29	=29
2.F\	.	-ne
(4F\	.	na-
4E\	.	.
4D\)	.	.
!LO:LB:g=original	!	!
=30	=30	=30
1C	.	-sci
2C/	.	.
=31	=31	=31
2.C/	.	na-
(4D\	.	-sci
2E\)	.	.
=32	=32	=32
2F\	.	di-
2G\	.	-gna-
2GG/	.	-t(us)
=	=	=
2C,</	.	est
=33!|:	=33!|:	=33!|:
(4C/	.	et
4D/)	.	.
(4E/	.	pro-
4C/)	.	.
=34	=34	=34
1F	.	-ce-
2F\	.	-dens
=35	=35	=35
*	*	*ij
1C	.	et
2C/	.	pro-
=36	=36	=36
1F	.	-ce-
2F,<\	.	-dens
*	*	*Xij
=37	=37	=37
(1G	.	Ho-
2F\)	.	.
=38-	=38-	=38
1E,<	.	-mo
2D\	.	(pro)-
=39	=39	=39
2C/	.	-ce-
2C,</	.	-dens
*	*	*ij
2BB/	.	pro-
=40	=40	=40
1F	.	-ce-
2E\	.	-dens
*	*	*Xij
=41	=41	=41
2.D/	.	Ho-
(8C/L	.	-mo
8BB/J)	.	.
2AA/	.	si-
!LO:LB:g=original	!	!
=42	=42	=42
2BB-X/	.	-ne
2.C/	.	se-
4C/	.	-mi-
=43	=43	=43
4F,<\	.	-ne
4F\	.	pro-
2c\	.	-ce-
2Bn\	.	-dens
=44	=44	=44
2.A\	.	ho-
4A,<\	.	-mo
2E\	.	si-
=45	=45	=45
2F\	.	-ne
2.A\	.	se-
4AA/	.	-mi-
=46	=46	=46
2D,<\	.	-ne,
2.D\	.	lar-
4E\	.	.
=47	=47	=47
2F#X\	.	-gi-
2.E\	.	-tus!
4F#X\	.	lar-
=48	=48	=48
1G	.	-gi-
2G\	.	-t(us)
!LO:LB:g=original	!	!
=49	=49	=49
1.G,<	.	est
=50	=50	=50
2r	.	.
2C/	.	lar-
2D/	.	.
=51	=51	=51
2E\	.	-gi-
2.D\	.	-tus
4E\	.	lar-
=52	=52	=52
2F\	.	-gi-
2F,<\	.	-t(us)
2F,<\	.	est
=53	=53	=53
1.E	6\	no-
=54	=54	=54
1D,<	#	-bis
2D\	.	su-
=55	=55	=55
2G,<\	.	-am
2F#X\	6\	De-
2E\	.	-i-
=56	=56	=56
1.BB	.	-ta-
!LO:LB:g=original	!	!
=57	=57	=57
2E,<\	.	-tem
(2.E\	.	lar-
4F#X\)	.	.
=58	=58	=58
2G#X\	6	-gi-
2.F#X,<\	.	-tus
4G#X\	.	lar-
=59	=59	=59
*	*below	*
1A	#	-gi-
2A\	.	-t(us)
=60	=60	=60
1.A	.	est
=61	=61	=61
2r	.	.
2.D\	.	lar-
4E\	.	.
=62	=62	=62
2F#X\	.	-gi-
2.E\	.	-tus
4F#X\	.	lar-
=63	=63	=63
1.G	.	-gi-
!LO:LB:g=original	!	!
=64	=64	=64
1G,<	.	-tus
2G\	.	est
=65	=65	=65
1C	.	no-
2C/	.	-bis
=66	=66	=66
2C/	.	su-
2D/	.	-am
2E\	.	De-
=67	=67	=67
2C/	.	-i-
1D	.	-ta-
=68	=68	=68
1GG,<	.	-tem
2E\	.	su-
=69	=69	=69
2F,<\	.	-am
2D/	.	De-
2C/	.	-i-
=70	=70	=70
2F\	.	-ta-
2G\	.	.
2GG/	.	.
=71	=71	=71
!LO:TX:b:t=et (pro)cedens ut \n ſupra	!	!
0C;	.	-tem
==	==	==
*-	*-	*-
!!!RDF**kern: < = below
!!!ENC: Marta Lawrence
!!!END: 2021-02-19
!!!ENC: Tomasz Grochalski
!!!END: 2021-02-14
